src/custom/assets/cow-swap/network-gnosis-chain-logo.svg

<svg fill="none" height="600" viewBox="0 0 600 600" width="600" xmlns="http://www.w3.org/2000/svg"><g fill="#04795b"><path d="m176.651 341.446c17.915 0 34.454-5.97 47.777-16.303l-109.339-109.3c-10.336 13.089-16.309 29.621-16.309 47.762-.229 42.939 34.686 77.841 77.871 77.841z"/><path d="m501.912 263.374c0-17.91-5.972-34.442-16.309-47.76l-109.34 109.299c13.094 10.333 29.633 16.303 47.78 16.303 42.954.229 77.869-34.672 77.869-77.842z"/><path d="m557.042 144.662-48.469 48.451c16.08 19.287 25.728 43.627 25.728 70.723 0 60.849-49.386 110.217-110.259 110.217-26.876 0-51.454-9.644-70.749-25.718l-53.062 53.043-53.063-53.043c-19.294 16.074-43.644 25.718-70.749 25.718-60.872 0-110.259-49.368-110.259-110.217 0-26.866 9.648-51.436 25.728-70.723l-24.808-24.8-23.661-23.651c-27.563 45.465-43.414 98.508-43.414 155.454 0 165.785 134.377 299.884 299.996 299.884 165.617 0 299.994-134.328 299.994-299.884.462-57.175-15.389-110.218-42.953-155.454z"/><path d="m517.302 92.997c-54.44-57.176-131.621-92.997-217.071-92.997-85.451 0-162.402 35.821-217.072 92.997-7.351 7.807-14.471 16.074-21.134 24.569l237.976 237.886 237.974-238.115c-5.972-8.268-13.093-16.762-20.673-24.34zm-217.071-53.961c70.29 0 135.526 27.095 184.453 76.463l-184.453 184.386-184.455-184.386c49.158-49.368 114.165-76.463 184.455-76.463z"/></g></svg>

<?xml version="1.0" encoding="utf-8"?>
<svg width="600" height="600" viewBox="0 0 600 600" fill="none" xmlns="http://www.w3.org/2000/svg">
  <path d="M 176.651 341.446 C 194.566 341.446 211.105 335.476 224.428 325.143 L 115.089 215.843 C 104.753 228.932 98.78 245.464 98.78 263.605 C 98.551 306.544 133.466 341.446 176.651 341.446 Z" fill="#04795B" style=""/>
  <path d="M 501.912 263.374 C 501.912 245.464 495.94 228.932 485.603 215.614 L 376.263 324.913 C 389.357 335.246 405.896 341.216 424.043 341.216 C 466.997 341.445 501.912 306.544 501.912 263.374 Z" fill="#04795B" style=""/>
  <path d="M 557.042 144.662 L 508.573 193.113 C 524.653 212.4 534.301 236.74 534.301 263.836 C 534.301 324.685 484.915 374.053 424.042 374.053 C 397.166 374.053 372.588 364.409 353.293 348.335 L 300.231 401.378 L 247.168 348.335 C 227.874 364.409 203.524 374.053 176.419 374.053 C 115.547 374.053 66.16 324.685 66.16 263.836 C 66.16 236.97 75.808 212.4 91.888 193.113 L 67.08 168.313 L 43.419 144.662 C 15.856 190.127 0.005 243.17 0.005 300.116 C 0.005 465.901 134.382 600 300.001 600 C 465.618 600 599.995 465.672 599.995 300.116 C 600.457 242.941 584.606 189.898 557.042 144.662 Z" fill="#04795B" style=""/>
  <path d="M 517.302 92.997 C 462.862 35.821 385.681 0 300.231 0 C 214.78 0 137.829 35.821 83.159 92.997 C 75.808 100.804 68.688 109.071 62.025 117.566 L 300.001 355.452 L 537.975 117.337 C 532.003 109.069 524.882 100.575 517.302 92.997 Z M 300.231 39.036 C 370.521 39.036 435.757 66.131 484.684 115.499 L 300.231 299.885 L 115.776 115.499 C 164.934 66.131 229.941 39.036 300.231 39.036 Z" fill="#04795B" style=""/>
</svg>
